www/assets/images/test_icons/flags/DJ.svg

<svg fill="none" height="15" viewBox="0 0 21 15" width="21" xmlns="http://www.w3.org/2000/svg" xmlns:xlink="http://www.w3.org/1999/xlink"><mask id="a" height="15" maskUnits="userSpaceOnUse" width="21" x="0" y="0"><path d="m19 0h-17c-1.10457 0-2 .89543-2 2v11c0 1.1046.89543 2 2 2h17c1.1046 0 2-.8954 2-2v-11c0-1.10457-.8954-2-2-2z" fill="#fff"/></mask><g mask="url(#a)"><path d="m19 0h-17c-1.10457 0-2 .89543-2 2v11c0 1.1046.89543 2 2 2h17c1.1046 0 2-.8954 2-2v-11c0-1.10457-.8954-2-2-2z" fill="#00af1e"/><g clip-rule="evenodd" fill-rule="evenodd"><path d="m0 0h21v8h-21z" fill="#67b1e9"/><path d="m0 0 12 7.5-12 7.5z" fill="#fff"/><path d="m4.50001 8.75-1.47.773.28-1.637-1.188-1.16 1.643-.237.735-1.489.735 1.49 1.643.237-1.19 1.16.28 1.636" fill="#d90d08"/></g><path d="m19 .5h-17c-.82843 0-1.5.67157-1.5 1.5v11c0 .8284.67157 1.5 1.5 1.5h17c.8284 0 1.5-.6716 1.5-1.5v-11c0-.82843-.6716-1.5-1.5-1.5z" stroke="#000" stroke-opacity=".1"/></g></svg>

<svg width="21" height="15" viewBox="0 0 21 15" fill="none" xmlns="http://www.w3.org/2000/svg">
<mask id="mask0_3_166" style="mask-type:alpha" maskUnits="userSpaceOnUse" x="0" y="0" width="21" height="15">
<path d="M19 0H2C0.89543 0 0 0.89543 0 2V13C0 14.1046 0.89543 15 2 15H19C20.1046 15 21 14.1046 21 13V2C21 0.89543 20.1046 0 19 0Z" fill="white"/>
</mask>
<g mask="url(#mask0_3_166)">
<path d="M19 0H2C0.89543 0 0 0.89543 0 2V13C0 14.1046 0.89543 15 2 15H19C20.1046 15 21 14.1046 21 13V2C21 0.89543 20.1046 0 19 0Z" fill="#00AF1E"/>
<path fill-rule="evenodd" clip-rule="evenodd" d="M0 0H21V8H0V0Z" fill="#67B1E9"/>
<path fill-rule="evenodd" clip-rule="evenodd" d="M0 0L12 7.5L0 15V0Z" fill="white"/>
<path fill-rule="evenodd" clip-rule="evenodd" d="M4.50001 8.75L3.03001 9.523L3.31001 7.886L2.12201 6.726L3.76501 6.489L4.50001 5L5.23501 6.49L6.87801 6.727L5.68801 7.887L5.96801 9.523" fill="#D90D08"/>
<path d="M19 0.5H2C1.17157 0.5 0.5 1.17157 0.5 2V13C0.5 13.8284 1.17157 14.5 2 14.5H19C19.8284 14.5 20.5 13.8284 20.5 13V2C20.5 1.17157 19.8284 0.5 19 0.5Z" stroke="black" stroke-opacity="0.1"/>
</g>
</svg>
